X: 14545
T: Gan Ainm
R: jig
M: 6/8
K: Edorian
E3 E2 D|EFG B3|E3 E2 D|EFG FED|
E3 E2 D|EFG B3|dBA BAG|1 AGF GFD:|2 AGF FGA||
B3 B2 A|Bcd f3|B3 B2 A|Bcd cBA|
B3 B2 A|Bcd f3|afe fed|1 edc dcA:|2 edc AFD||

